packages/crayons-core/src/components/icon/icon-assets/icons/ticket-secondary.svg

<?xml version="1.0" encoding="UTF-8"?>
<svg width="16px" height="16px" viewBox="0 0 16 16" version="1.1" xmlns="http://www.w3.org/2000/svg" xmlns:xlink="http://www.w3.org/1999/xlink">
    <!-- Generator: Sketch 52.6 (67491) - http://www.bohemiancoding.com/sketch -->
    <title>icon/ticket-secondary</title>
    <desc>Created with Sketch.</desc>
    <g id="Icons-✅" stroke="none" stroke-width="1" fill="none" fill-rule="evenodd">
        <g id="Icons" transform="translate(-408.000000, -936.000000)" fill="currentColor">
            <g id="icon/ticket-secondary" transform="translate(408.000000, 936.000000)">
                <g id="ticket-secondary">
                    <path d="M8,16 C7.77789537,15.9976549 7.57008472,15.8900387 7.44,15.71 L6.33,14.22 L4.63,15 C4.4318667,15.09984 4.1981333,15.09984 4,15 C3.80856492,14.8860032 3.67967157,14.6908218 3.65,14.47 L3.45,12.62 L1.6,12.42 C1.36523087,12.3752035 1.16725955,12.2183205 1.07,12 C0.970159985,11.8018667 0.970159985,11.5681333 1.07,11.37 L1.81,9.67 L0.28,8.56 C0.10373591,8.42780193 -7.08635688e-17,8.22033011 0,8 C7.08635688e-17,7.77966989 0.10373591,7.57219807 0.28,7.44 L1.78,6.33 L1,4.63 C0.900159985,4.4318667 0.900159985,4.1981333 1,4 C1.11399684,3.80856492 1.3091782,3.67967157 1.53,3.65 L3.38,3.45 L3.58,1.6 C3.62479653,1.36523087 3.78167947,1.16725955 4,1.07 C4.1981333,0.970159985 4.4318667,0.970159985 4.63,1.07 L6.33,1.81 L7.44,0.29 C7.57669429,0.120849447 7.78252072,0.02254834 8,0.02254834 C8.21747928,0.02254834 8.42330571,0.120849447 8.56,0.29 L9.67,1.78 L11.37,1 C11.5681333,0.900159985 11.8018667,0.900159985 12,1 C12.1914351,1.11399684 12.3203284,1.3091782 12.35,1.53 L12.55,3.38 L14.4,3.58 C14.6208218,3.60967157 14.8160032,3.73856492 14.93,3.93 C15.02984,4.1281333 15.02984,4.3618667 14.93,4.56 L14.19,6.26 L15.69,7.37 C15.8662641,7.50219807 15.97,7.70966989 15.97,7.93 C15.97,8.15033011 15.8662641,8.35780193 15.69,8.49 L14.19,9.6 L14.93,11.3 C15.02984,11.4981333 15.02984,11.7318667 14.93,11.93 C14.8160032,12.1214351 14.6208218,12.2503284 14.4,12.28 L12.55,12.48 L12.35,14.33 C12.3203284,14.5508218 12.1914351,14.7460032 12,14.86 C11.8018667,14.95984 11.5681333,14.95984 11.37,14.86 L9.67,14.12 L8.56,15.71 C8.42991528,15.8900387 8.22210463,15.9976549 8,16 Z M6.56,12.65 C6.78563445,12.6491509 6.99784334,12.7571169 7.13,12.94 L8,14.12 L8.87,12.94 C9.0658354,12.6756742 9.41759765,12.5804914 9.72,12.71 L11.06,13.3 L11.22,11.84 C11.2624919,11.5168135 11.5168135,11.2624919 11.84,11.22 L13.3,11.06 L12.71,9.72 C12.5765398,9.41788673 12.6724075,9.0635931 12.94,8.87 L14.12,8 L12.94,7.13 C12.6724075,6.9364069 12.5765398,6.58211327 12.71,6.28 L13.3,4.94 L11.84,4.78 C11.5168135,4.73750809 11.2624919,4.48318651 11.22,4.16 L11.06,2.7 L9.72,3.29 C9.41759765,3.41950856 9.0658354,3.32432584 8.87,3.06 L8,1.88 L7.13,3.06 C6.93203368,3.32118402 6.58265825,3.4157209 6.28,3.29 L4.94,2.7 L4.78,4.16 C4.73750809,4.48318651 4.48318651,4.73750809 4.16,4.78 L2.7,4.94 L3.29,6.28 C3.42346024,6.58211327 3.32759255,6.9364069 3.06,7.13 L1.88,8 L3.06,8.87 C3.32759255,9.0635931 3.42346024,9.41788673 3.29,9.72 L2.7,11.06 L4.16,11.22 C4.48318651,11.2624919 4.73750809,11.5168135 4.78,11.84 L4.94,13.3 L6.28,12.71 C6.36853649,12.67196 6.46365033,12.6515785 6.56,12.65 Z" id="Shape"></path>
                </g>
            </g>
        </g>
    </g>
</svg>

<svg viewBox="0 0 16 16"><path d="M8 16a.7.7 0 0 1-.56-.29l-1.11-1.49-1.7.78A.7.7 0 0 1 4 15a.73.73 0 0 1-.35-.53l-.2-1.85-1.85-.2a.73.73 0 0 1-.53-.42.7.7 0 0 1 0-.63l.74-1.7L.28 8.56a.7.7 0 0 1 0-1.12l1.5-1.11L1 4.63A.7.7 0 0 1 1 4a.73.73 0 0 1 .53-.35l1.85-.2.2-1.85A.73.73 0 0 1 4 1.07a.7.7 0 0 1 .63 0l1.7.74L7.44.29a.72.72 0 0 1 1.12 0l1.11 1.49 1.7-.78A.7.7 0 0 1 12 1a.73.73 0 0 1 .35.53l.2 1.85 1.85.2a.73.73 0 0 1 .53.35.7.7 0 0 1 0 .63l-.74 1.7 1.5 1.11a.7.7 0 0 1 0 1.12l-1.5 1.11.74 1.7a.7.7 0 0 1 0 .63.73.73 0 0 1-.53.35l-1.85.2-.2 1.85a.73.73 0 0 1-.35.53.7.7 0 0 1-.63 0l-1.7-.74-1.11 1.59A.7.7 0 0 1 8 16zm-1.44-3.35a.7.7 0 0 1 .57.29L8 14.12l.87-1.18a.71.71 0 0 1 .85-.23l1.34.59.16-1.46a.72.72 0 0 1 .62-.62l1.46-.16-.59-1.34a.7.7 0 0 1 .23-.85L14.12 8l-1.18-.87a.7.7 0 0 1-.23-.85l.59-1.34-1.46-.16a.72.72 0 0 1-.62-.62l-.16-1.46-1.34.59a.71.71 0 0 1-.85-.23L8 1.88l-.87 1.18a.72.72 0 0 1-.85.23L4.94 2.7l-.16 1.46a.72.72 0 0 1-.62.62l-1.46.16.59 1.34a.7.7 0 0 1-.23.85L1.88 8l1.18.87a.7.7 0 0 1 .23.85l-.59 1.34 1.46.16a.72.72 0 0 1 .62.62l.16 1.46 1.34-.59a.74.74 0 0 1 .28-.06z" fill="currentColor" fill-rule="evenodd"/></svg>
